**kern	**kern
*part1	*part1
*staff2	*staff1
*I"Piano	*
*clefF4	*clefG2
*k[f#]	*k[f#]
*M6/8	*M6/8
=1	=1
4GG 4G	8.BL 8.g
.	16f#K
8GG 8G	8gJ
4DD 4D	8.f#L 8.a
.	16eK 16g
8DD 8D	8f#J 8a
=	=
4.GG 4.G	(4.g 4.b
8r	8g)
8r	8r
8BBB 8BB	8B
=	=
4CC 4C	8.cL
.	16BK
8CC 8C	8cJ
4CC#X 4C#X	8.c#XL
.	16BK
8CC# 8C#	8c#J
=	=
4DD 4D	8.dL
.	16f#K
8DD 8D	8aJ
4FF# 4F#	8.ddL
.	16aK
8FF# 8F#	8f#J
=	=
4.GG 4.G	8.eL
.	16gK 16b
.	8f#J 8a
4A	8.eL 8.g
.	16dK 16f#
8AA	8cJ 8e
=	=
8.DL	4d
16AAK	.
8FF#J	8r
4DD	4r
8r	8f# 8a
=	=
4DD 4D	8.f#L 8.a
.	16eK 16g
8DD 8D	8f#J 8a
4GG 4G	(4g 4b
8GG 8G	8g)
=	=
*-	*-
!!!system-decoration: {(s1,s2)}
